svgs/thin/face-weary.svg

<svg xmlns="http://www.w3.org/2000/svg" viewBox="0 0 512 512"><!--! Font Awesome Pro 6.5.1 by @fontawesome - https://fontawesome.com License - https://fontawesome.com/license (Commercial License) Copyright 2023 Fonticons, Inc. --><path d="M496 256A240 240 0 1 0 16 256a240 240 0 1 0 480 0zM0 256a256 256 0 1 1 512 0A256 256 0 1 1 0 256zm176 84c-10 10-18 21-23.5 31.5S144 392 144 400l20.5-7.7c28.7-10.8 59.2-16.3 89.9-16.3h3.2c30.7 0 61.1 5.5 89.9 16.3L368 400c0-8-3-18-8.5-28.5S346 350 336 340c-20-20-48-36-80-36s-60 16-80 36zm80-52c37.4 0 69.3 18.7 91.3 40.7c11.1 11.1 20.1 23.4 26.4 35.4c6.2 11.7 10.3 24.4 10.3 35.9c0 5.2-2.6 10.2-6.9 13.2s-9.8 3.7-14.7 1.8l-20.5-7.7c-26.9-10.1-55.5-15.3-84.3-15.3h-3.2c-28.8 0-57.3 5.2-84.3 15.3L149.6 415c-4.9 1.8-10.4 1.2-14.7-1.8s-6.9-7.9-6.9-13.2c0-11.6 4.2-24.2 10.3-35.9c6.3-12 15.3-24.3 26.4-35.4c22-22 53.9-40.7 91.3-40.7zM205.7 170.3c3.1 3.1 3.1 8.2 0 11.3l-7.4 7.4c-22.4 22.4-51.2 37.2-82.5 42.5l-2.5 .4c-4.4 .7-8.5-2.2-9.2-6.6s2.2-8.5 6.6-9.2l2.5-.4c28-4.7 53.8-17.9 73.8-38l7.4-7.4c3.1-3.1 8.2-3.1 11.3 0zm100.7 11.3c-3.1-3.1-3.1-8.2 0-11.3s8.2-3.1 11.3 0l7.4 7.4c20 20 45.8 33.3 73.8 38l2.5 .4c4.4 .7 7.3 4.8 6.6 9.2s-4.8 7.3-9.2 6.6l-2.5-.4c-31.3-5.2-60.1-20.1-82.5-42.5l-7.4-7.4z"/></svg>

<svg xmlns="http://www.w3.org/2000/svg" viewBox="0 0 512 512"><!--! Font Awesome Pro 6.1.1 by @fontawesome - https://fontawesome.com License - https://fontawesome.com/license (Commercial License) Copyright 2022 Fonticons, Inc. --><path d="M347.3 328.7C358.4 339.8 367.4 352.1 373.7 364.1C379.8 375.8 384 388.4 384 400C384 405.2 381.4 410.2 377.1 413.2C372.8 416.1 367.3 416.8 362.4 414.1L341.8 407.3C314.9 397.2 286.4 392 257.6 392H254.4C225.6 392 197.1 397.2 170.2 407.3L149.6 414.1C144.7 416.8 139.2 416.1 134.9 413.2C130.6 410.2 127.1 405.2 127.1 400C127.1 388.4 132.2 375.8 138.3 364.1C144.6 352.1 153.6 339.8 164.7 328.7C186.7 306.7 218.6 288 255.1 288C293.4 288 325.3 306.7 347.3 328.7H347.3zM152.5 371.5C147 382 144 392 144 400L164.5 392.3C193.3 381.5 223.7 376 254.4 376H257.6C288.3 376 318.7 381.5 347.5 392.3L368 400C368 392 365 382 359.5 371.5C354 361 346 350 336 340C315.1 319.1 287.1 304 256 304C224 304 196 319.1 176 340C166 350 158 361 152.5 371.5L152.5 371.5zM205.7 170.3C208.8 173.5 208.8 178.5 205.7 181.7L198.3 189C175.9 211.4 147 226.3 115.8 231.5L113.3 231.9C108.1 232.6 104.8 229.7 104.1 225.3C103.4 220.1 106.3 216.8 110.7 216.1L113.2 215.7C141.1 211 166.9 197.8 186.1 177.7L194.3 170.3C197.5 167.2 202.5 167.2 205.7 170.3V170.3zM306.3 181.7C303.2 178.5 303.2 173.5 306.3 170.3C309.5 167.2 314.5 167.2 317.7 170.3L325 177.7C345.1 197.8 370.9 211 398.8 215.7L401.3 216.1C405.7 216.8 408.6 220.1 407.9 225.3C407.2 229.7 403 232.6 398.7 231.9L396.2 231.5C364.1 226.3 336.1 211.4 313.7 189L306.3 181.7zM512 256C512 397.4 397.4 512 256 512C114.6 512 0 397.4 0 256C0 114.6 114.6 0 256 0C397.4 0 512 114.6 512 256zM256 16C123.5 16 16 123.5 16 256C16 388.5 123.5 496 256 496C388.5 496 496 388.5 496 256C496 123.5 388.5 16 256 16z"/></svg>
